X: 33209
T: Providence, The
R: reel
M: 4/4
K: Dmajor
|:E3F DEFA|d2fd gefd|ed B/c/d AdcA|B/c/d AG FEED|
EDEF DEFA|d2fd gefd|ed B/c/d AdcA|1 B/c/d AG FDDF:|2 B/c/d AG FDD2||
|:f~d3 fdad|f~d3 ecAe|f~d3 fdad|ceag fdde|
ffaf gfec|dBAF G2FG|A2GA A2de|1 f/a/f e/g/a fdde:|2 f/a/f e/g/a fdd2||

